X:1
T:Heim i Tvitulid
M:4/4
L:1/8
K:D
| "D"D2DF "D/F#"A2A2 | "A"AGEG "D"F2 F2
| "D"D2DF "D/F#"A2A2 | "A"AGEF "D"D4 |
| "D"F2 GA "G"B2B2 | "D/F#"A2FA "A/E"G2 E2
| "D"F2 GA "G"B2B2 | "D/F#"A2FA "G"GEA2- "A"A4
| "D"D2DF "D/F#"A2A2 | "A"AGEG "D"F2 F2
| "D"D2DF "D/F#"A2A2 | "A"AGEC "D"D4 |
